packages/astro-components-stencil/src/icons/pie-chart.svg

<svg width="24" height="24" viewBox="0 0 24 24" fill="none" xmlns="http://www.w3.org/2000/svg">
<path fill-rule="evenodd" clip-rule="evenodd" d="M11 20.82C11 21.46 10.41 21.94 9.79 21.8C5.32 20.8 2 16.79 2 12C2 7.20995 5.32 3.19995 9.79 2.19995C10.41 2.05995 11 2.53995 11 3.17995V20.82ZM13.03 3.17995V9.98995C13.03 10.54 13.48 10.99 14.03 10.99H20.82C21.46 10.99 21.94 10.4 21.8 9.76995C20.95 6.00995 18 3.04995 14.25 2.19995C13.62 2.05995 13.03 2.53995 13.03 3.17995ZM13.03 20.82V14.01C13.03 13.46 13.48 13.01 14.04 13H20.83C21.46 13 21.95 13.6 21.81 14.22C20.96 17.98 18.01 20.95 14.25 21.8C13.62 21.94 13.03 21.46 13.03 20.82Z" fill="black"/>
</svg>

<svg xmlns="http://www.w3.org/2000/svg" viewBox="0 0 24 24"><g xmlns="http://www.w3.org/2000/svg" id="pie-chart" fill-rule="nonzero">
            <path d="M11 3.18v17.64c0 .64-.59 1.12-1.21.98C5.32 20.8 2 16.79 2 12c0-4.79 3.32-8.8 7.79-9.8a.998.998 0 011.21.98zm2.03 0v6.81c0 .55.45 1 1 1h6.79c.64 0 1.12-.59.98-1.22-.85-3.76-3.8-6.72-7.55-7.57-.63-.14-1.22.34-1.22.98zm0 10.83v6.81c0 .64.59 1.12 1.22.98 3.76-.85 6.71-3.82 7.56-7.58.14-.62-.35-1.22-.98-1.22h-6.79c-.56.01-1.01.46-1.01 1.01z"/>
        </g></svg>
